X: 24948
T: Maid In The Cherry Tree, The
R: reel
M: 4/4
K: Amixolydian
cd|eAAA G2 cd|eAAA gefd|eAAA G2 Bc|dBgB BAcd|
eAAA G2 cd|eAAA gefd|eAAA G2 Bc|dBgB BAcd||
eaaa bgag|eaag e2 d2|eaaa bgaf|gedB BA A2|
eaaa bgag|eaag e2 ga|bgaf geef|gBdB BA A2||

